src/assets/text/TextBio.svg

<svg width="20" height="20" viewBox="0 0 20 20" fill="none" xmlns="http://www.w3.org/2000/svg">
<path fill-rule="evenodd" clip-rule="evenodd" d="M12.3334 1C12.3334 0.447715 11.8856 0 11.3334 0C10.7811 0 10.3334 0.447715 10.3334 1V1.33333H9.66669V1C9.66669 0.447715 9.21897 0 8.66669 0C8.1144 0 7.66669 0.447715 7.66669 1V1.66667C7.66669 2.58714 8.41288 3.33333 9.33335 3.33333H10.6667C11.5872 3.33333 12.3334 2.58714 12.3334 1.66667V1ZM17.3334 3.66667C17.3334 2.19391 16.1394 1 14.6667 1H14.1667C13.6144 1 13.1667 1.44772 13.1667 2C13.1667 2.55228 13.6144 3 14.1667 3H14.6667C15.0349 3 15.3334 3.29848 15.3334 3.66667L15.3334 17.3333C15.3334 17.7015 15.0349 18 14.6667 18H5.33335C4.96516 18 4.66669 17.7015 4.66669 17.3333L4.66669 3.66667C4.66669 3.29848 4.96516 3 5.33335 3L5.83335 3C6.38564 3 6.83335 2.55228 6.83335 2C6.83335 1.44771 6.38564 1 5.83335 1H5.33335C3.86059 0.999999 2.66669 2.19391 2.66669 3.66667L2.66669 17.3333C2.66669 18.8061 3.86059 20 5.33335 20H14.6667C16.1394 20 17.3334 18.8061 17.3334 17.3333L17.3334 3.66667ZM10 9C10.5523 9 11 8.55229 11 8C11 7.44772 10.5523 7 10 7C9.44773 7 9.00002 7.44772 9.00002 8C9.00002 8.55229 9.44773 9 10 9ZM10 11C11.6569 11 13 9.65685 13 8C13 6.34315 11.6569 5 10 5C8.34316 5 7.00002 6.34315 7.00002 8C7.00002 9.65685 8.34316 11 10 11ZM7.54716 15.3074C7.8558 14.7342 8.535 13.6667 10 13.6667C11.465 13.6667 12.1442 14.7342 12.4529 15.3074C12.7147 15.7937 13.3212 15.9756 13.8075 15.7138C14.2937 15.452 14.4757 14.8455 14.2138 14.3592C13.8558 13.6943 12.6683 11.6667 10 11.6667C7.33171 11.6667 6.14424 13.6943 5.78621 14.3592C5.52438 14.8455 5.70632 15.452 6.19259 15.7138C6.67886 15.9756 7.28532 15.7937 7.54716 15.3074Z" fill="#333333"/>
</svg>

<svg xmlns="http://www.w3.org/2000/svg" width="20" height="20" fill="none"><path fill="#333" fill-rule="evenodd" d="M12.333 1a1 1 0 0 0-2 0v.333h-.666V1a1 1 0 0 0-2 0v.667c0 .92.746 1.666 1.666 1.666h1.334c.92 0 1.666-.746 1.666-1.666zm5 2.667A2.667 2.667 0 0 0 14.667 1h-.5a1 1 0 1 0 0 2h.5c.368 0 .666.298.666.667v13.666a.667.667 0 0 1-.666.667H5.333a.667.667 0 0 1-.666-.667V3.667c0-.369.298-.667.666-.667h.5a1 1 0 1 0 0-2h-.5a2.667 2.667 0 0 0-2.666 2.667v13.666A2.667 2.667 0 0 0 5.333 20h9.334a2.667 2.667 0 0 0 2.666-2.667zM10 9a1 1 0 1 0 0-2 1 1 0 0 0 0 2m0 2a3 3 0 1 0 0-6 3 3 0 0 0 0 6m-2.453 4.307c.309-.573.988-1.64 2.453-1.64 1.465 0 2.144 1.067 2.453 1.64a1 1 0 1 0 1.76-.948c-.357-.665-1.545-2.692-4.213-2.692s-3.856 2.027-4.214 2.692a1 1 0 0 0 1.761.948" clip-rule="evenodd"/></svg>
